X:250
T: WAR EINST EIN JUNG ZIMMERGESELL
N: E0129
O: Europa, Mitteleuropa, Deutschland
R: erzaehlendes Volks - Lied, Schalk -, Schelmen - Lied, Liebe; Handwerk
M: 6/8
L: 1/16
K: F
C2 | F4F2A2G2F2 | G3GG2B2A2
G2 | D4D2F2E2D2 | A8z2
c2 | c4B2d2d2B2 | B2B2A2c4
A2 | A2A2G2A4B2 | c8z2
c2 | c4c2d2d2B2 | B4A2c4
A2 | A4G2B4A2 | F8z2

